build/category/WebhookOutline.svg

<svg xmlns="http://www.w3.org/2000/svg" fill="none" viewBox="0 0 24 24" focusable="false"><path d="M0 0H24V24H0z" transform="matrix(1 0 0 -1 0 24)"/><path fill="#74767B" fill-rule="evenodd" d="M10.0561 15.3734C10.0561 16.4933 9.14822 17.4012 8.02833 17.4012C6.90844 17.4012 6.00059 16.4933 6.00059 15.3734C6.00059 14.2535 6.90844 13.3457 8.02833 13.3457C8.15999 13.3457 8.28873 13.3582 8.4134 13.3822L9.10813 12.1923C7.32835 10.7982 6.79953 8.27212 7.9624 6.25798C9.23605 4.05194 12.0569 3.2961 14.2629 4.56975C15.6391 5.36428 16.4503 6.76121 16.5575 8.2325C16.5836 8.59053 16.3145 8.90193 15.9565 8.92802C15.5985 8.9541 15.2871 8.68501 15.261 8.32697C15.1837 7.26701 14.6003 6.26566 13.6129 5.69559C12.0287 4.78092 10.0029 5.32372 9.08823 6.90797C8.2161 8.41855 8.66914 10.3312 10.0865 11.2981C10.4793 11.5661 10.6565 12.1185 10.385 12.5837L9.54319 14.0255C9.86222 14.3837 10.0561 14.8559 10.0561 15.3734ZM12.4629 10.5682C12.3142 10.603 12.1592 10.6213 12 10.6213C10.8801 10.6213 9.97227 9.71346 9.97227 8.59357C9.97227 7.47368 10.8801 6.56583 12 6.56583C13.1199 6.56583 14.0277 7.47368 14.0277 8.59357C14.0277 9.08225 13.8549 9.53056 13.567 9.88067L14.2663 11.0889C16.3642 10.2423 18.8182 11.0472 19.9817 13.0624C21.2554 15.2684 20.4995 18.0893 18.2935 19.3629C16.9174 20.1575 15.3019 20.1616 13.9742 19.5188C13.6511 19.3623 13.5159 18.9736 13.6724 18.6505C13.8288 18.3274 14.2175 18.1922 14.5406 18.3487C15.4972 18.8118 16.6561 18.8072 17.6435 18.2371C19.2278 17.3224 19.7706 15.2967 18.8559 13.7124C17.9835 12.2014 16.0998 11.6375 14.5534 12.3825C14.1267 12.5881 13.5622 12.4675 13.2935 12.0034L12.4629 10.5682ZM12.7277 8.59357C12.7277 8.99549 12.4019 9.32131 12 9.32131C11.5981 9.32131 11.2723 8.99549 11.2723 8.59357C11.2723 8.19165 11.5981 7.86583 12 7.86583C12.4019 7.86583 12.7277 8.19165 12.7277 8.59357ZM6.3436 11.7589C6.54521 12.056 6.46786 12.4602 6.17084 12.6618C5.2915 13.2587 4.71602 14.2646 4.71602 15.4048C4.71602 17.2341 6.19899 18.7171 8.02833 18.7171C9.773 18.7171 11.2031 17.3678 11.3313 15.6562C11.3667 15.1835 11.7539 14.7548 12.2906 14.7548L14.0115 14.7548C14.2731 13.9374 15.039 13.3457 15.9431 13.3457C17.063 13.3457 17.9709 14.2535 17.9709 15.3734C17.9709 16.4933 17.063 17.4012 15.9431 17.4012C15.0623 17.4012 14.3126 16.8395 14.0327 16.0548L12.5951 16.0548C12.279 18.2946 10.3551 20.0171 8.02833 20.0171C5.48102 20.0171 3.41602 17.9521 3.41602 15.4048C3.41602 13.8157 4.22017 12.4147 5.44074 11.5862C5.73777 11.3846 6.14199 11.4619 6.3436 11.7589ZM8.75607 15.3734C8.75607 15.7753 8.43025 16.1012 8.02833 16.1012C7.62641 16.1012 7.30059 15.7753 7.30059 15.3734C7.30059 14.9715 7.62641 14.6457 8.02833 14.6457C8.43025 14.6457 8.75607 14.9715 8.75607 15.3734ZM15.9431 16.1012C16.345 16.1012 16.6709 15.7753 16.6709 15.3734C16.6709 14.9715 16.345 14.6457 15.9431 14.6457C15.5412 14.6457 15.2154 14.9715 15.2154 15.3734C15.2154 15.7753 15.5412 16.1012 15.9431 16.1012Z"/></svg>

<svg xmlns="http://www.w3.org/2000/svg" fill="none" viewBox="0 0 24 24" focusable="false"><path fill="#74767B" fill-rule="evenodd" d="M10.05 15.37c0 1.12-.91 2.03-2.03 2.03S6 16.49 6 15.37s.9-2.03 2.02-2.03c.13 0 .26.01.39.04l.69-1.19a4.619 4.619 0 0 1 5.16-7.63c1.37.8 2.19 2.2 2.29 3.67.03.36-.24.67-.6.69a.636.636 0 0 1-.69-.6 3.31 3.31 0 0 0-1.65-2.63A3.326 3.326 0 0 0 9.08 6.9a3.31 3.31 0 0 0 1 4.39c.39.27.57.82.3 1.29l-.84 1.44c.32.36.51.83.51 1.35m2.41-4.81c-.15.04-.31.06-.46.06-1.12 0-2.03-.91-2.03-2.03s.91-2.03 2.03-2.03c1.11 0 2.02.91 2.02 2.03 0 .49-.17.94-.46 1.29l.7 1.2c2.1-.84 4.55-.04 5.72 1.98 1.27 2.2.51 5.02-1.69 6.3-1.38.79-2.99.8-4.32.15a.64.64 0 0 1-.3-.86.65.65 0 0 1 .87-.31c.95.47 2.11.46 3.1-.11a3.305 3.305 0 0 0 1.21-4.52 3.307 3.307 0 0 0-4.3-1.33c-.43.2-.99.08-1.26-.38zm.26-1.97a.726.726 0 1 1-1.45 0 .726.726 0 1 1 1.45 0m-6.55 4.07c.29-.2.37-.61.17-.91a.655.655 0 0 0-.9-.17 4.62 4.62 0 0 0-2.03 3.82c0 2.55 2.07 4.61 4.61 4.61 2.33 0 4.25-1.72 4.57-3.96h1.44c.28.78 1.03 1.35 1.91 1.35 1.12 0 2.03-.91 2.03-2.03s-.91-2.03-2.03-2.03c-.91 0-1.67.59-1.93 1.41h-1.72c-.54 0-.93.43-.96.9a3.317 3.317 0 0 1-3.31 3.06 3.308 3.308 0 0 1-1.85-6.05m2.58 2.71a.726.726 0 1 1-1.45 0 .726.726 0 1 1 1.45 0m7.92 0c0 .4-.33.73-.73.73s-.73-.33-.73-.73.33-.73.73-.73.73.33.73.73"/></svg>
